svgs/thin/car-rear.svg

<svg xmlns="http://www.w3.org/2000/svg" viewBox="0 0 512 512"><!-- Font Awesome Pro 6.0.0-alpha2 by @fontawesome - https://fontawesome.com License - https://fontawesome.com/license (Commercial License) --><path d="M456.348 192.842L419.141 81.234C409.328 51.781 381.891 32 350.844 32H161.156C130.109 32 102.672 51.781 92.859 81.234L55.652 192.842C24.293 196.971 0 223.512 0 256V352C0 372.869 13.4 390.451 32 397.062V472C32 476.418 35.582 480 40 480S48 476.418 48 472V400H464V472C464 476.418 467.582 480 472 480S480 476.418 480 472V397.062C498.6 390.451 512 372.869 512 352V256C512 223.512 487.707 196.971 456.348 192.842ZM108.047 86.297C115.672 63.391 137.016 48 161.156 48H350.844C374.984 48 396.328 63.391 403.953 86.297L439.191 192H72.809L108.047 86.297ZM16 272H72C76.412 272 80 275.588 80 280V312C80 316.41 76.412 320 72 320H16V272ZM496 320H440C435.588 320 432 316.41 432 312V280C432 275.588 435.588 272 440 272H496V320ZM440 256C426.744 256 416 266.744 416 280V312C416 325.254 426.744 336 440 336H496V352C496 369.645 481.645 384 464 384H48C30.355 384 16 369.645 16 352V336H72C85.256 336 96 325.254 96 312V280C96 266.744 85.256 256 72 256H16C16 229.533 37.533 208 64 208H448C474.467 208 496 229.533 496 256H440ZM304 288H208C199.164 288 192 295.162 192 304V336C192 344.836 199.164 352 208 352H304C312.836 352 320 344.836 320 336V304C320 295.162 312.836 288 304 288ZM304 336H208V304H304V336Z"/></svg>

<svg xmlns="http://www.w3.org/2000/svg" viewBox="0 0 512 512"><!--! Font Awesome Pro 6.0.0-alpha3 by @fontawesome - https://fontawesome.com License - https://fontawesome.com/license (Commercial License) --><path d="M456.3 192.8l-37.21-111.6C409.3 51.78 381.9 32 350.8 32H161.2C130.1 32 102.7 51.78 92.86 81.23L55.65 192.8C24.29 196.1 .0495 223.5 .0495 256L0 352c0 20.87 13.4 38.45 32 45.06V472C32 476.4 35.58 480 40 480s8-3.582 8-8V400h416v72c0 4.418 3.582 8 8 8S480 476.4 480 472v-74.94C498.6 390.5 512 372.9 512 352V256C512 223.5 487.7 196.1 456.3 192.8zM108 86.3C115.7 63.39 137 48 161.2 48h189.7c24.14 0 45.48 15.39 53.11 38.3L439.2 192H72.81L108 86.3zM16 272h56c4.412 0 8 3.588 8 8v32C80 316.4 76.41 320 72 320H16V272zM496 320h-56c-4.412 0-8-3.59-8-8v-32c0-4.412 3.588-8 8-8h56V320zM440 256C426.7 256 416 266.7 416 280v32c0 13.25 10.74 24 24 24h56V352c0 17.64-14.36 32-32 32h-416c-17.64 0-32-14.36-32-32v-16h56C85.26 336 96 325.3 96 312v-32C96 266.7 85.26 256 72 256H16c0-26.47 21.53-48 48-48h384c26.47 0 48 21.53 48 48H440zM304 288h-96C199.2 288 192 295.2 192 304v32C192 344.8 199.2 352 208 352h96c8.836 0 16-7.164 16-16v-32C320 295.2 312.8 288 304 288zM304 336h-96v-32h96V336z"/></svg>
